X: 1
T: The Spotted Pony
R: barndance
M: 4/4
L: 1/8
K: Dmaj
|:D2DD E2EE| F2AF G2FG |1 ABde f2ed |f2a2 e4 :|2 ABdA Bd2B | AFE2 D4 ||
|:f2af e3e | efed B4 | ABde f2ed | f2a2 e2de |f2af e3e |
efed B4 |1 A2BAd3A | BAF2 E4:|2 ABdABd2B|AFE2 D4||

